src/helpers/heroicons/outline/phone-x-mark.svg

<svg width="24" height="24" viewBox="0 0 24 24" fill="none" xmlns="http://www.w3.org/2000/svg">
<path d="M15.75 3.75L18 6M18 6L20.25 8.25M18 6L20.25 3.75M18 6L15.75 8.25M17.25 21.75C8.96573 21.75 2.25 15.0343 2.25 6.75V4.5C2.25 3.25736 3.25736 2.25 4.5 2.25H5.87163C6.38785 2.25 6.83783 2.60133 6.96304 3.10215L8.06883 7.52533C8.17861 7.96445 8.01453 8.4266 7.65242 8.69818L6.3588 9.6684C5.98336 9.94998 5.81734 10.437 5.97876 10.8777C7.19015 14.1846 9.81539 16.8098 13.1223 18.0212C13.563 18.1827 14.05 18.0166 14.3316 17.6412L15.3018 16.3476C15.5734 15.9855 16.0355 15.8214 16.4747 15.9312L20.8979 17.037C21.3987 17.1622 21.75 17.6121 21.75 18.1284V19.5C21.75 20.7426 20.7426 21.75 19.5 21.75H17.25Z"  stroke-width="1.5" stroke-linecap="round" stroke-linejoin="round"/>
</svg>

<svg xmlns="http://www.w3.org/2000/svg" fill="none" viewBox="0 0 24 24" stroke-width="1.5" stroke="currentColor" aria-hidden="true" data-slot="icon">
  <path stroke-linecap="round" stroke-linejoin="round" d="M15.75 3.75 18 6m0 0 2.25 2.25M18 6l2.25-2.25M18 6l-2.25 2.25m1.5 13.5c-8.284 0-15-6.716-15-15V4.5A2.25 2.25 0 0 1 4.5 2.25h1.372c.516 0 .966.351 1.091.852l1.106 4.423c.11.44-.054.902-.417 1.173l-1.293.97a1.062 1.062 0 0 0-.38 1.21 12.035 12.035 0 0 0 7.143 7.143c.441.162.928-.004 1.21-.38l.97-1.293a1.125 1.125 0 0 1 1.173-.417l4.423 1.106c.5.125.852.575.852 1.091V19.5a2.25 2.25 0 0 1-2.25 2.25h-2.25Z"/>
</svg>
